svg/set/BOT/80.svg

<?xml version="1.0" encoding="utf-8"?>
<!-- Generator: Adobe Illustrator 15.1.0, SVG Export Plug-In . SVG Version: 6.00 Build 0)  -->
<!DOCTYPE svg PUBLIC "-//W3C//DTD SVG 1.1//EN" "http://www.w3.org/Graphics/SVG/1.1/DTD/svg11.dtd">
<svg version="1.1" id="Layer_1" xmlns="http://www.w3.org/2000/svg" xmlns:xlink="http://www.w3.org/1999/xlink" x="0px" y="0px"
	 width="135px" height="155px" viewBox="0 0 135 155" enable-background="new 0 0 135 155" xml:space="preserve">
<g id="Layer_1_1_">
</g>
<g id="Layer_3" display="none">
</g>
<g>
	<path fill="#5D5E61" d="M125.779,4.546l-15.582,25.192L90.156,36.89l5.565-31.883l-9.003,2.649l-9.517,17.175h-12.81
		c-12.438,0-24.889,1.962-37.026,5.833l-0.39-1.871H2.008l8.36,46.336L10.7,75.35l3.882,58.985l34.156,18.026h27.079l42.271-21.803
		l7.917-58.695l0.679-1.03L133.2,2.361L125.779,4.546z"/>
	<path d="M65.038,66.933v50.546h-4.263V82.638l-5.241-20.056L65.038,66.933z M59.222,132.493l-4.277,16.117h10.094v-16.117H59.222z
		 M56.422,123.021V93.97l-11.248,9.473v41.624l5.882,2.735l4.519-19.056h9.464v-5.726H56.422z M127.614,10.655l-5.57,58.544
		l-51.55,78.358V84.858l7.617-7.533c2.398-2.517,5.518-5.64,8.185-6.366l25.017-8.849l0.312-4.786L84.719,67.366l1.238-6.747
		l26.066-9.409l0.33-5.058l-25.303,8.505l2.33-12.422l23.996-8.562L127.614,10.655z M108.688,73.915L73.107,87.101l7.844,16.255
		L108.688,73.915z M51,43.223c0,0,6.74-2.189,14.038-2.465V29.627c-12.607-0.07-25.092,1.899-37.456,5.986l2.047,11.02
		l35.409,16.454V51.095L51,43.223z M113.688,127.455l6.595-48.88l-46.142,69.261L113.688,127.455z M74.586,47.826l-4.092,13.564
		v18.953l9.037-10.352l10.06-57.632L75.298,38.19h-4.804v9.636H74.586z M25.814,94.703l-1.202-10.531l-8.907-5.453l3.466,52.65
		l21.969,11.688v-38.336L25.814,94.703z M30.68,82.951L14.706,72.285L7.72,33.567h15.371l3.11,14.995l24.069,11.993l5.9,22.396
		H30.68z M19.869,56.144l25.558,10.691l-0.823-4.388L19.515,51.92L19.869,56.144z M21.052,65.48l26.216,11.188l-0.79-4.221
		L20.705,61.552L21.052,65.48z"/>
</g>
</svg>

<?xml version="1.0" encoding="UTF-8" standalone="no"?>
<!-- Generator: Adobe Illustrator 15.1.0, SVG Export Plug-In . SVG Version: 6.00 Build 0)  -->

<svg
   version="1.1"
   id="Layer_1"
   x="0px"
   y="0px"
   width="131.192"
   height="150"
   viewBox="0 0 131.192 150"
   enable-background="new 0 0 135 155"
   xml:space="preserve"
   xmlns="http://www.w3.org/2000/svg"
   xmlns:svg="http://www.w3.org/2000/svg"><defs
   id="defs2" />
<g
   id="Layer_1_1_"
   transform="translate(-2.008,-2.361)">
</g>
<g
   id="Layer_3"
   display="none"
   transform="translate(-2.008,-2.361)">
</g>
<g
   id="g2"
   transform="translate(-2.008,-2.361)">
	<path
   fill="#5d5e61"
   d="M 125.779,4.546 110.197,29.738 90.156,36.89 95.721,5.007 86.718,7.656 77.201,24.831 h -12.81 c -12.438,0 -24.889,1.962 -37.026,5.833 l -0.39,-1.871 H 2.008 l 8.36,46.336 0.332,0.221 3.882,58.985 34.156,18.026 h 27.079 l 42.271,-21.803 7.917,-58.695 0.679,-1.03 6.516,-68.472 z"
   id="path1" />
	<path
   d="m 65.038,66.933 v 50.546 H 60.775 V 82.638 L 55.534,62.582 Z m -5.816,65.56 -4.277,16.117 h 10.094 v -16.117 z m -2.8,-9.472 V 93.97 l -11.248,9.473 v 41.624 l 5.882,2.735 4.519,-19.056 h 9.464 v -5.726 h -8.617 z m 71.192,-112.366 -5.57,58.544 -51.55,78.358 V 84.858 l 7.617,-7.533 c 2.398,-2.517 5.518,-5.64 8.185,-6.366 l 25.017,-8.849 0.312,-4.786 -26.906,10.042 1.238,-6.747 26.066,-9.409 0.33,-5.058 -25.303,8.505 2.33,-12.422 23.996,-8.562 z m -18.926,63.26 -35.581,13.186 7.844,16.255 z M 51,43.223 c 0,0 6.74,-2.189 14.038,-2.465 V 29.627 c -12.607,-0.07 -25.092,1.899 -37.456,5.986 l 2.047,11.02 35.409,16.454 V 51.095 Z m 62.688,84.232 6.595,-48.88 -46.142,69.261 z M 74.586,47.826 70.494,61.39 V 80.343 L 79.531,69.991 89.591,12.359 75.298,38.19 h -4.804 v 9.636 z m -48.772,46.877 -1.202,-10.531 -8.907,-5.453 3.466,52.65 21.969,11.688 V 104.721 Z M 30.68,82.951 14.706,72.285 7.72,33.567 h 15.371 l 3.11,14.995 24.069,11.993 5.9,22.396 z M 19.869,56.144 45.427,66.835 44.604,62.447 19.515,51.92 Z m 1.183,9.336 26.216,11.188 -0.79,-4.221 -25.773,-10.895 z"
   id="path2" />
</g>
</svg>
